packages/foundations/assets/icons/functional/images/devices/fax_machine_14.svg

<svg width="14" height="14" viewBox="0 0 14 14" fill="none" xmlns="http://www.w3.org/2000/svg">
<g clip-path="url(#clip0_185_717)">
<path fill-rule="evenodd" clip-rule="evenodd" d="M9.16512 1.4C9.34012 1.4 9.51513 1.5092 9.60262 1.575L11.0243 3.0184L11.0754 3.0877C11.1538 3.2081 11.1993 3.3544 11.1993 3.5V5.6H11.4842C12.1842 5.6 12.6 6.2125 12.6 6.8908V10.6316C12.6 11.2875 12.1625 11.9 11.4842 11.9H5.05402C4.66902 12.3263 4.11812 12.6 3.50002 12.6C2.34222 12.6 1.40002 11.6578 1.40002 10.5V6.3C1.40002 5.1422 2.34222 4.2 3.50002 4.2V2.6467C3.50002 1.925 4.06842 1.4 4.76842 1.4H9.16512ZM3.49932 5.6C3.11292 5.6 2.79932 5.9136 2.79932 6.3V10.5C2.79932 10.8864 3.11292 11.2 3.49932 11.2C3.88572 11.2 4.19932 10.8864 4.19932 10.5V6.3C4.19932 5.9136 3.88572 5.6 3.49932 5.6ZM11.1993 7H5.59932V10.5H11.1993V7ZM9.44932 8.05C9.83592 8.05 10.1493 8.3634 10.1493 8.75C10.1493 9.1366 9.83592 9.45 9.44932 9.45C9.06273 9.45 8.74932 9.1366 8.74932 8.75C8.74932 8.3634 9.06273 8.05 9.44932 8.05ZM7.34932 8.05C7.73592 8.05 8.04932 8.3634 8.04932 8.75C8.04932 9.1366 7.73592 9.45 7.34932 9.45C6.96272 9.45 6.64932 9.1366 6.64932 8.75C6.64932 8.3634 6.96272 8.05 7.34932 8.05ZM8.39932 2.8H4.89932V4.746C5.15622 4.9777 5.35222 5.2682 5.47052 5.6H9.79932V4.2H9.07762C8.70592 4.2 8.39932 3.85 8.39932 3.5V2.8Z" fill="#1A1C1F"/>
</g>
<defs>
<clipPath id="clip0_185_717">
<rect width="14" height="14" fill="white"/>
</clipPath>
</defs>
</svg>

<svg xmlns="http://www.w3.org/2000/svg" width="14" height="14" fill="none"><g clip-path="url(#a)"><path fill="#1A1C1F" fill-rule="evenodd" d="M9.165 1.4c.175 0 .35.11.438.175l1.421 1.443.051.07c.079.12.124.266.124.412v2.1h.285c.7 0 1.116.613 1.116 1.29v3.742c0 .656-.437 1.268-1.116 1.268h-6.43a2.1 2.1 0 0 1-1.554.7c-1.158 0-2.1-.942-2.1-2.1V6.3c0-1.158.942-2.1 2.1-2.1V2.647c0-.722.568-1.247 1.268-1.247zM3.5 5.6a.7.7 0 0 0-.7.7v4.2a.7.7 0 0 0 1.4 0V6.3a.7.7 0 0 0-.7-.7M11.2 7H5.6v3.5h5.6zM9.45 8.05a.7.7 0 1 1 0 1.4.7.7 0 0 1 0-1.4m-2.1 0a.7.7 0 1 1 0 1.4.7.7 0 0 1 0-1.4M8.4 2.8H4.9v1.946c.257.232.453.522.572.854h4.328V4.2h-.721c-.372 0-.679-.35-.679-.7z" clip-rule="evenodd"/></g><defs><clipPath id="a"><path fill="#fff" d="M0 0h14v14H0z"/></clipPath></defs></svg>
